!!!OTL: ソラニン
**kern	**text	**kern	**text	**kern	**text	**kern	**text	**kern	**text
*part5	*part5	*part4	*part4	*part3	*part3	*part2	*part2	*part1	*part1
*staff5	*staff5	*staff4	*staff4	*staff3	*staff3	*staff2	*staff2	*staff1	*staff1
*I"そのち	*	*I"たかなな	*	*I"ひなた	*	*I"めい	*	*I"Lead Vocal	*
*I'そのち	*	*I'ななみ	*	*I'ひな	*	*I'めい	*	*I'Pno.	*
*clefGv2	*	*clefG2	*	*clefG2	*	*clefG2	*	*clefG2	*
*k[f#c#g#d#a#]	*	*k[f#c#g#d#a#]	*	*k[f#c#g#d#a#]	*	*k[f#c#g#d#a#]	*	*k[f#c#g#d#a#]	*
*M4/4	*	*M4/4	*	*M4/4	*	*M4/4	*	*M4/4	*
=1	=1	=1	=1	=1	=1	=1	=1	=1	=1
1r	.	1r	.	1r	.	4.E	お	4.E	お
.	.	.	.	.	.	8B	も	8B	も
.	.	.	.	.	.	4.B	い	4.B	い
.	.	.	.	.	.	8A#	ち	8A#	ち
=2	=2	=2	=2	=2	=2	=2	=2	=2	=2
1r	.	1r	.	1r	.	8G#L	が	8G#L	が
.	.	.	.	.	.	8A#J	い	8A#J	い
.	.	.	.	.	.	4B	は	4B	は
.	.	.	.	.	.	4r	.	4r	.
.	.	.	.	.	.	8F#L	そ	8F#L	そ
.	.	.	.	.	.	[8F#J	ら	[8F#J	ら
=3	=3	=3	=3	=3	=3	=3	=3	=3	=3
1r	.	1r	.	1r	.	4F#]	.	4F#]	.
.	.	.	.	.	.	8EL	の	8EL	の
.	.	.	.	.	.	[8D#J	か	[8D#J	か
.	.	.	.	.	.	4D#]	.	4D#]	.
.	.	.	.	.	.	8EL	な	8EL	な
.	.	.	.	.	.	[8D#J	た	[8D#J	た
=4	=4	=4	=4	=4	=4	=4	=4	=4	=4
1r	.	1r	.	1r	.	2D#]	.	2D#]	.
.	.	.	.	.	.	2r	.	2r	.
=5	=5	=5	=5	=5	=5	=5	=5	=5	=5
1r	.	1r	.	1r	.	4.D#	さ	4.D#	さ
.	.	.	.	.	.	8B	よ	8B	よ
.	.	.	.	.	.	4.B	な	4.B	な
.	.	.	.	.	.	8A#	ら	8A#	ら
=6	=6	=6	=6	=6	=6	=6	=6	=6	=6
1r	.	1r	.	1r	.	8G#L	だ	8G#L	だ
.	.	.	.	.	.	8A#J	け	8A#J	け
.	.	.	.	.	.	4B	の	4B	の
.	.	.	.	.	.	4r	.	4r	.
.	.	.	.	.	.	8F#L	じ	8F#L	じ
.	.	.	.	.	.	[8F#J	ん	[8F#J	ん
=7	=7	=7	=7	=7	=7	=7	=7	=7	=7
1r	.	1r	.	1r	.	4F#]	.	4F#]	.
.	.	.	.	.	.	8EL	せ	8EL	せ
.	.	.	.	.	.	[8D#J	い	[8D#J	い
.	.	.	.	.	.	4D#]	.	4D#]	.
.	.	.	.	.	.	8EL	か	8EL	か
.	.	.	.	.	.	[8D#J	.	[8D#J	.
=8	=8	=8	=8	=8	=8	=8	=8	=8	=8
1r	.	1r	.	1r	.	8D#]	.	8D#]	.
.	.	.	.	.	.	4.BB	.	4.BB	.
.	.	.	.	.	.	2r	.	2r	.
=9	=9	=9	=9	=9	=9	=9	=9	=9	=9
1r	.	1r	.	1r	.	4.E	ほ	4.E	ほ
.	.	.	.	.	.	8B	ん	8B	ん
.	.	.	.	.	.	4.B	の	4.B	の
.	.	.	.	.	.	8A#	す	8A#	す
=10	=10	=10	=10	=10	=10	=10	=10	=10	=10
1r	.	1r	.	1r	.	8G#L	こ	8G#L	こ
.	.	.	.	.	.	8A#J	し	8A#J	し
.	.	.	.	.	.	4B	の	4B	の
.	.	.	.	.	.	4r	.	4r	.
.	.	.	.	.	.	[4e	み	[4e	み
=11	=11	=11	=11	=11	=11	=11	=11	=11	=11
1r	.	1r	.	1r	.	4e]	.	4e]	.
.	.	.	.	.	.	4d#	ら	4d#	ら
.	.	.	.	.	.	4B	い	4B	い
.	.	.	.	.	.	[4B	は	[4B	は
=12	=12	=12	=12	=12	=12	=12	=12	=12	=12
1r	.	1r	.	1r	.	4B]	.	4B]	.
.	.	.	.	.	.	4r	.	4r	.
.	.	.	.	.	.	4B	み	4B	み
.	.	.	.	.	.	[4A#	え	[4A#	え
=13	=13	=13	=13	=13	=13	=13	=13	=13	=13
1r	.	1r	.	1r	.	4A#]	.	4A#]	.
.	.	.	.	.	.	4B	た	4B	た
.	.	.	.	.	.	4B	の	4B	の
.	.	.	.	.	.	8d#L	に	8d#L	に
.	.	.	.	.	.	8eJ	.	8eJ	.
=14	=14	=14	=14	=14	=14	=14	=14	=14	=14
1r	.	1r	.	1r	.	4d#	.	4d#	.
.	.	.	.	.	.	4r	.	4r	.
.	.	.	.	.	.	4B	さ	4B	さ
.	.	.	.	.	.	[4A#	よ	[4A#	よ
=15	=15	=15	=15	=15	=15	=15	=15	=15	=15
1r	.	1r	.	1r	.	4A#]	.	4A#]	.
.	.	.	.	.	.	4B	.	4B	.
.	.	.	.	.	.	4B	な	4B	な
.	.	.	.	.	.	8BL	ら	8BL	ら
.	.	.	.	.	.	8c#J	.	8c#J	.
=16	=16	=16	=16	=16	=16	=16	=16	=16	=16
1r	.	1r	.	1r	.	4B	な	4B	な
.	.	.	.	.	.	4B	ん	4B	ん
.	.	.	.	.	.	4F#	だ	4F#	だ
.	.	.	.	.	.	8A#L	.	8A#L	.
*MM150	*	*MM150	*	*MM150	*	*MM150	*	*MM150	*
.	.	.	.	.	.	[8BJ	.	[8BJ	.
=17||	=17||	=17||	=17||	=17||	=17||	=17||	=17||	=17||	=17||
[1G#	woo	1c#	lu	[1e	woo	1B_	.	1B_	.
=18	=18	=18	=18	=18	=18	=18	=18	=18	=18
1G#]	.	1d#	lu	1e]	.	1B]	.	1B]	.
=19	=19	=19	=19	=19	=19	=19	=19	=19	=19
[1G#	woo	1B	lu	[1e	woo	1r	.	1r	.
=20	=20	=20	=20	=20	=20	=20	=20	=20	=20
1G#]	.	4c#	lu	1e]	.	2r	.	2r	.
.	.	4d#	lu	.	.	.	.	.	.
.	.	4f#	lu	.	.	4r	.	4r	.
.	.	4d#	lu	.	.	4r	.	4r	.
=21	=21	=21	=21	=21	=21	=21	=21	=21	=21
[1F#	woo	1c#	lu	[1d#	woo	2r	.	2r	.
.	.	.	.	.	.	2r	.	2r	.
=22	=22	=22	=22	=22	=22	=22	=22	=22	=22
1F#]	.	1d#	lu	1d#]	.	1r	.	1r	.
=23	=23	=23	=23	=23	=23	=23	=23	=23	=23
[1D#	woo	1B	lu	[1f#	woo	1r	.	1r	.
=24	=24	=24	=24	=24	=24	=24	=24	=24	=24
1D#]	.	4B	lu	1f#]	.	1r	.	1r	.
.	.	4A#	lu	.	.	.	.	.	.
.	.	4F#	lu	.	.	.	.	.	.
.	.	4F#	ー	.	.	.	.	.	.
=25	=25	=25	=25	=25	=25	=25	=25	=25	=25
[1G#	woo	1c#	lu	[1e	woo	1r	.	1r	.
=26	=26	=26	=26	=26	=26	=26	=26	=26	=26
1G#]	.	1d#	lu	1e]	.	1r	.	1r	.
=27	=27	=27	=27	=27	=27	=27	=27	=27	=27
[1G#	woo	1B	lu	[1e	woo	1r	.	1r	.
=28	=28	=28	=28	=28	=28	=28	=28	=28	=28
1G#]	.	4c#	lu	1e]	.	1r	.	1r	.
.	.	4d#	lu	.	.	.	.	.	.
.	.	4f#	lu	.	.	.	.	.	.
.	.	4d#	lu	.	.	.	.	.	.
=29	=29	=29	=29	=29	=29	=29	=29	=29	=29
[1F#	woo	1c#	lu	[1d#	woo	1r	.	1r	.
=30	=30	=30	=30	=30	=30	=30	=30	=30	=30
1F#]	.	1d#	lu	1d#]	.	1r	.	1r	.
=31	=31	=31	=31	=31	=31	=31	=31	=31	=31
1D#	woo	1B	lu	1f#	woo	1r	.	1r	.
=32	=32	=32	=32	=32	=32	=32	=32	=32	=32
1E	.	4B	lu	1e	.	1r	.	1r	.
.	.	4A#	lu	.	.	.	.	.	.
.	.	4F#	lu	.	.	.	.	.	.
.	.	4F#	ー	.	.	.	.	.	.
=33||	=33||	=33||	=33||	=33||	=33||	=33||	=33||	=33||	=33||
[1G#	woo	[1B	woo	[1e	woo	4.E	む	4.E	む
.	.	.	.	.	.	8B	か	8B	か
.	.	.	.	.	.	4.B	し	4.B	し
.	.	.	.	.	.	8A#	す	8A#	す
=34	=34	=34	=34	=34	=34	=34	=34	=34	=34
1G#]	.	1B]	.	1e]	.	8G#L	ん	8G#L	ん
.	.	.	.	.	.	8A#J	で	8A#J	で
.	.	.	.	.	.	4B	た	4B	た
.	.	.	.	.	.	4r	.	4r	.
.	.	.	.	.	.	8F#L	ち	8F#L	ち
.	.	.	.	.	.	[8F#J	い	[8F#J	い
=35	=35	=35	=35	=35	=35	=35	=35	=35	=35
[1G#	woo	[1B	woo	[1e	woo	4F#]	.	4F#]	.
.	.	.	.	.	.	8EL	さ	8EL	さ
.	.	.	.	.	.	[8D#J	な	[8D#J	な
.	.	.	.	.	.	4D#]	.	4D#]	.
.	.	.	.	.	.	8EL	へ	8EL	へ
.	.	.	.	.	.	[8D#J	や	[8D#J	や
=36	=36	=36	=36	=36	=36	=36	=36	=36	=36
1G#]	.	1B]	.	1e]	.	8D#]	.	8D#]	.
.	.	.	.	.	.	4.BB	は	4.BB	は
.	.	.	.	.	.	2r	.	2r	.
=37	=37	=37	=37	=37	=37	=37	=37	=37	=37
[1F#	woo	[1B	woo	[1d#	woo	4.D#	い	4.D#	い
.	.	.	.	.	.	8B	ま	8B	ま
.	.	.	.	.	.	4.B	は	4.B	は
.	.	.	.	.	.	8A#	だ	8A#	だ
=38	=38	=38	=38	=38	=38	=38	=38	=38	=38
1F#]	.	1B]	.	1d#]	.	8G#L	れ	8G#L	れ
.	.	.	.	.	.	8A#J	か	8A#J	か
.	.	.	.	.	.	4B	が	4B	が
.	.	.	.	.	.	4r	.	4r	.
.	.	.	.	.	.	8F#L	す	8F#L	す
.	.	.	.	.	.	[8F#J	ん	[8F#J	ん
=39	=39	=39	=39	=39	=39	=39	=39	=39	=39
[1D#	woo	[1F#	woo	[1B	woo	4F#]	.	4F#]	.
.	.	.	.	.	.	8EL	で	8EL	で
.	.	.	.	.	.	[8D#J	ん	[8D#J	ん
.	.	.	.	.	.	4D#]	.	4D#]	.
.	.	.	.	.	.	8EL	だ	8EL	だ
.	.	.	.	.	.	[8D#J	.	[8D#J	.
=40	=40	=40	=40	=40	=40	=40	=40	=40	=40
1D#]	.	1F#]	.	1B]	.	8D#]	.	8D#]	.
.	.	.	.	.	.	4.BB	.	4.BB	.
.	.	.	.	.	.	2r	.	2r	.
=41	=41	=41	=41	=41	=41	=41	=41	=41	=41
[1G#	woo	1c#	woo	[1e	woo	4.E	き	4.E	き
.	.	.	.	.	.	8B	み	8B	み
.	.	.	.	.	.	4.B	に	4.B	に
.	.	.	.	.	.	8A#	い	8A#	い
=42	=42	=42	=42	=42	=42	=42	=42	=42	=42
1G#]	.	1d#	.	1e]	.	8G#L	わ	8G#L	わ
.	.	.	.	.	.	8A#J	れ	8A#J	れ
.	.	.	.	.	.	4B	た	4B	た
.	.	.	.	.	.	4r	.	4r	.
.	.	.	.	.	.	[4e	ひ	[4e	ひ
=43	=43	=43	=43	=43	=43	=43	=43	=43	=43
[1G#	woo	[1B	woo	[1e	woo	4e]	.	4e]	.
.	.	.	.	.	.	4d#	ど	4d#	ど
.	.	.	.	.	.	4B	い	4B	い
.	.	.	.	.	.	[4c#	こ	[4c#	こ
=44	=44	=44	=44	=44	=44	=44	=44	=44	=44
1G#]	.	1B]	.	1e]	.	4c#]	.	4c#]	.
.	.	.	.	.	.	4d#	と	4d#	と
.	.	.	.	.	.	8c#L	ば	8c#L	ば
.	.	.	.	.	.	8BJ	.	8BJ	.
.	.	.	.	.	.	4B	も	4B	も
=45	=45	=45	=45	=45	=45	=45	=45	=45	=45
[1F#	woo	1c#	woo	[1d#	woo	4F#	む	4F#	む
.	.	.	.	.	.	4B	だ	4B	だ
.	.	.	.	.	.	4B	な	4B	な
.	.	.	.	.	.	4A#	き	4A#	き
=46	=46	=46	=46	=46	=46	=46	=46	=46	=46
1F#]	.	1d#	woo	1d#]	.	8G#L	が	8G#L	が
.	.	.	.	.	.	8A#J	し	8A#J	し
.	.	.	.	.	.	4B	た	4B	た
.	.	.	.	.	.	4r	.	4r	.
.	.	.	.	.	.	8BL	ま	8BL	ま
.	.	.	.	.	.	[8c#J	.	[8c#J	.
=47	=47	=47	=47	=47	=47	=47	=47	=47	=47
1F#	woo	1B	woo	1d#	woo	8c#L]	.	8c#L]	.
.	.	.	.	.	.	8BJ	い	8BJ	い
.	.	.	.	.	.	4B	に	4B	に
.	.	.	.	.	.	4A#	ち	4A#	ち
.	.	.	.	.	.	4c#	も	4c#	も
=48	=48	=48	=48	=48	=48	=48	=48	=48	=48
1E	ha	1B	ha	1d#	ha	2B	.	2B	.
.	.	.	.	.	.	4r	.	4r	.
.	.	.	.	.	.	8BL	あ	8BL	あ
.	.	.	.	.	.	8BJ	の	8BJ	の
=49||	=49||	=49||	=49||	=49||	=49||	=49||	=49||	=49||	=49||
2A#	tun	2c#	tun	2f#	tun	2c#	.	2c#	.
2A#	tu	2c#	tun	2f#	tun	4r	.	4r	.
.	.	.	.	.	.	8BL	と	8BL	と
.	.	.	.	.	.	[8c#J	き	[8c#J	き
=50	=50	=50	=50	=50	=50	=50	=50	=50	=50
2A#	tun	2c#	tun	2f#	tun	4c#]	.	4c#]	.
.	.	.	.	.	.	4r	.	4r	.
2A#	tun	2c#	tun	2f#	tun	4B	こ	4B	こ
.	.	.	.	.	.	4B	う	4B	う
=51	=51	=51	=51	=51	=51	=51	=51	=51	=51
2A#	tun	2c#	tun	2f#	tun	4c#	し	4c#	し
.	.	.	.	.	.	4d#	て	4d#	て
2A#	tun	2c#	tun	2f#	tun	8f#L	い	8f#L	い
.	.	.	.	.	.	8A#J	.	8A#J	.
.	.	.	.	.	.	[4A#	れ	[4A#	れ
=52	=52	=52	=52	=52	=52	=52	=52	=52	=52
2A#	tun	2c#	tun	2f#	tun	4A#]	.	4A#]	.
.	.	.	.	.	.	4B	ば	4B	ば
2A#	tun	2c#	tun	2f#	tun	4r	.	4r	.
.	.	.	.	.	.	8BL	あ	8BL	あ
.	.	.	.	.	.	[8c#J	の	[8c#J	の
=53	=53	=53	=53	=53	=53	=53	=53	=53	=53
2G#	tun	2B	tun	2e	tun	2c#]	.	2c#]	.
2G#	tun	2B	tun	2e	tun	4r	.	4r	.
.	.	.	.	.	.	8BL	ひ	8BL	ひ
.	.	.	.	.	.	[8c#J	に	[8c#J	に
=54	=54	=54	=54	=54	=54	=54	=54	=54	=54
2G#	tun	2B	tun	2e	tun	8c#]	.	8c#]	.
.	.	.	.	.	.	4.B	.	4.B	.
2G#	tun	2B	tun	2e	tun	4r	.	4r	.
.	.	.	.	.	.	4B	も	4B	も
=55	=55	=55	=55	=55	=55	=55	=55	=55	=55
2G#	tun	2B	tun	2e	tun	4c#	ど	4c#	ど
.	.	.	.	.	.	4B	れ	4B	れ
2G#	tun	2B	tun	2e	tun	4G#	れ	4G#	れ
.	.	.	.	.	.	4e	ば	4e	ば
=56	=56	=56	=56	=56	=56	=56	=56	=56	=56
2G#	tun	2B	tun	2e	tun	8d#	.	8d#	.
.	.	.	.	.	.	4.B	.	4.B	.
2G#	tun	2B	tun	2e	tun	4r	.	4r	.
.	.	.	.	.	.	8BL	あ	8BL	あ
.	.	.	.	.	.	8BJ	の	8BJ	の
=57	=57	=57	=57	=57	=57	=57	=57	=57	=57
2A#	tun	2c#	tun	2f#	tun	2c#	.	2c#	.
2A#	tun	2c#	tun	2f#	tun	4r	.	4r	.
.	.	.	.	.	.	8BL	こ	8BL	こ
.	.	.	.	.	.	[8c#J	ろ	[8c#J	ろ
=58	=58	=58	=58	=58	=58	=58	=58	=58	=58
2A#	tun	2c#	tun	2f#	tun	8c#]	.	8c#]	.
.	.	.	.	.	.	4.B	の	4.B	の
2A#	tun	2c#	tun	2f#	tun	4r	.	4r	.
.	.	.	.	.	.	4B	ぼ	4B	ぼ
=59	=59	=59	=59	=59	=59	=59	=59	=59	=59
2A#	tun	2c#	tun	2f#	tun	4c#	く	4c#	く
.	.	.	.	.	.	4d#	に	4d#	に
2A#	tun	2c#	tun	2f#	tun	8f#L	は	8f#L	は
.	.	.	.	.	.	8A#J	.	8A#J	.
.	.	.	.	.	.	[4A#	も	[4A#	も
=60	=60	=60	=60	=60	=60	=60	=60	=60	=60
2A#	tun	2c#	tun	2f#	tun	4A#]	.	4A#]	.
.	.	.	.	.	.	4B	う	4B	う
2A#	tun	2c#	tun	2f#	tun	4B	も	4B	も
.	.	.	.	.	.	8BL	ど	8BL	ど
.	.	.	.	.	.	[8c#J	.	[8c#J	.
=61	=61	=61	=61	=61	=61	=61	=61	=61	=61
2G#	も	2B	も	2e	も	4c#]	.	4c#]	.
.	.	.	.	.	.	4B	.	4B	.
2G#	ど	2B	ど	2e	ど	2B	れ	2B	れ
=62	=62	=62	=62	=62	=62	=62	=62	=62	=62
2G#	れ	2B	れ	2e	れ	2c#	ない	2c#	ない
4G#	な	4B	な	4e	な	4e	よ	4e	よ
4F#	い	4A#	い	4c#	い	[4d#	.	[4d#	.
=63	=63	=63	=63	=63	=63	=63	=63	=63	=63
[2A#	よ	[2c#	よ	[2f#	よ	2d#]	.	2d#]	.
2A#]	.	2c#]	.	2f#]	.	2r	.	2r	.
=64	=64	=64	=64	=64	=64	=64	=64	=64	=64
1r	.	1r	.	1r	.	4r	.	4r	.
.	.	.	.	.	.	4F#	た	4F#	た
.	.	.	.	.	.	4F#	と	4F#	と
.	.	.	.	.	.	4g#	え	4g#	え
=65||	=65||	=65||	=65||	=65||	=65||	=65||	=65||	=65||	=65||
4F#	fon	4r	.	2r	.	2f#	ば	2f#	ば
[4G#	fon	4r	.	.	.	.	.	.	.
2G#_	.	[4B	fon	4r	.	4r	.	4r	.
.	.	4B_	.	[4f#	fon	4B	ゆ	4B	ゆ
=66	=66	=66	=66	=66	=66	=66	=66	=66	=66
1G#]	.	1B]	.	1f#]	.	4B	る	4B	る
.	.	.	.	.	.	4B	い	4B	い
.	.	.	.	.	.	4r	.	4r	.
.	.	.	.	.	.	[4B	し	[4B	し
=67	=67	=67	=67	=67	=67	=67	=67	=67	=67
4F#	fon	4r	.	2r	.	4B]	.	4B]	.
[4G#	fon	4r	.	.	.	4A#	あ	4A#	あ
2G#_	.	[4B	fon	4r	.	4G#	わ	4G#	わ
.	.	4B_	.	[4f#	fon	4F#	せ	4F#	せ
=68	=68	=68	=68	=68	=68	=68	=68	=68	=68
1G#]	.	1B]	.	1f#]	.	4F#	が	4F#	が
.	.	.	.	.	.	4F#	だ	4F#	だ
.	.	.	.	.	.	2g#	らっ	2g#	らっ
=69	=69	=69	=69	=69	=69	=69	=69	=69	=69
4E	fon	4r	.	2r	.	2f#	と	2f#	と
[4F#	fon	4r	.	.	.	.	.	.	.
2F#_	.	[4B	fon	4r	.	4r	.	4r	.
.	.	4B_	.	[4d#	fon	4B	つ	4B	つ
=70	=70	=70	=70	=70	=70	=70	=70	=70	=70
1F#]	.	1B]	.	1d#]	.	4B	づ	4B	づ
.	.	.	.	.	.	4B	い	4B	い
.	.	.	.	.	.	4r	.	4r	.
.	.	.	.	.	.	[4B	た	[4B	た
=71	=71	=71	=71	=71	=71	=71	=71	=71	=71
4E	fon	4r	.	2r	.	4B]	.	4B]	.
[4F#	fon	4r	.	.	.	4A#	と	4A#	と
2F#_	.	[4B	fon	4r	.	4B	す	4B	す
.	.	4B_	.	[4d#	fon	4c#	る	4c#	る
=72	=72	=72	=72	=72	=72	=72	=72	=72	=72
1F#]	.	1B]	.	1d#]	.	4B	.	4B	.
.	.	.	.	.	.	4r	.	4r	.
.	.	.	.	.	.	2g#	きっ	2g#	きっ
=73	=73	=73	=73	=73	=73	=73	=73	=73	=73
4F#	fon	4r	.	2r	.	2f#	と	2f#	と
[4G#	fon	4r	.	.	.	.	.	.	.
2G#_	.	[4B	fon	4r	.	4r	.	4r	.
.	.	4B_	.	[4f#	fon	4B	わ	4B	わ
=74	=74	=74	=74	=74	=74	=74	=74	=74	=74
1G#]	.	1B]	.	1f#]	.	4B	る	4B	る
.	.	.	.	.	.	4B	い	4B	い
.	.	.	.	.	.	4r	.	4r	.
.	.	.	.	.	.	[4B	た	[4B	た
=75	=75	=75	=75	=75	=75	=75	=75	=75	=75
4F#	fon	4r	.	2r	.	4B]	.	4B]	.
[4G#	fon	4r	.	.	.	4A#	ね	4A#	ね
2G#_	.	[4B	fon	4r	.	4G#	が	4G#	が
.	.	4B_	.	[4f#	fon	[4F#	め	[4F#	め
=76	=76	=76	=76	=76	=76	=76	=76	=76	=76
1G#]	.	1B]	.	1f#]	.	4F#]	.	4F#]	.
.	.	.	.	.	.	4G#	を	4G#	を
.	.	.	.	.	.	[4.g#	だ	[4.g#	だ
.	.	.	.	.	.	8g#]	し	8g#]	し
=77	=77	=77	=77	=77	=77	=77	=77	=77	=77
4E	fon	4r	.	2r	.	2f#	て	2f#	て
[4F#	fon	4r	.	.	.	.	.	.	.
2F#_	.	[4B	fon	4r	.	4r	.	4r	.
.	.	4B_	.	[4d#	fon	8c#L	も	8c#L	も
.	.	.	.	.	.	[8BJ	う	[8BJ	う
=78	=78	=78	=78	=78	=78	=78	=78	=78	=78
2F#]	.	2B]	.	2d#]	.	2B]	.	2B]	.
4r	.	4r	.	4r	.	4r	.	4r	.
[4G#	さ	[4d#	さ	[4f#	さ	[4B	さ	[4B	さ
=79	=79	=79	=79	=79	=79	=79	=79	=79	=79
4G#]	.	4d#]	.	4f#]	.	4B]	.	4B]	.
4G#	よ	4d#	よ	4f#	よ	4B	よ	4B	よ
4G#	な	4d#	な	4f#	な	4B	な	4B	な
4c#	ら	4g#	ら	4b	ら	4e	ら	4e	ら
=80	=80	=80	=80	=80	=80	=80	=80	=80	=80
4B	.	4f#	.	4a#	.	4d#	.	4d#	.
4A#	な	4e	な	4g#	な	4c#	な	4c#	な
4D#	ん	4A#	ん	4c#	ん	4F#	ん	4F#	ん
4A#	だ	4e	だ	4g#	だ	4c#	だ	4c#	だ
=81||	=81||	=81||	=81||	=81||	=81||	=81||	=81||	=81||	=81||
[1G#	ー	[1B	ー	[1d#	ー	[1B	ー	[1B	ー
=82	=82	=82	=82	=82	=82	=82	=82	=82	=82
1G#]	ー	1B]	ー	1d#]	ー	1B]	ー	1B]	ー
=83	=83	=83	=83	=83	=83	=83	=83	=83	=83
[1F#	woo	[1B	woo	[1d#	woo	1r	.	1r	.
=84	=84	=84	=84	=84	=84	=84	=84	=84	=84
1F#]	ー	1B]	ー	1d#]	ー	1r	.	1r	.
=85	=85	=85	=85	=85	=85	=85	=85	=85	=85
[1E	woo	[1G#	woo	[1B	woo	1r	.	1r	.
=86	=86	=86	=86	=86	=86	=86	=86	=86	=86
1E]	ー	1G#]	ー	1B]	ー	1r	.	1r	.
=87	=87	=87	=87	=87	=87	=87	=87	=87	=87
[1D#	woo	[1F#	woo	[1B	woo	1r	.	1r	.
=88	=88	=88	=88	=88	=88	=88	=88	=88	=88
1D#]	ー	1F#]	ー	1B]	ー	1r	.	1r	.
=89||	=89||	=89||	=89||	=89||	=89||	=89||	=89||	=89||	=89||
[1G#	ha	[1B	ha	[1e	ha	1r	.	1r	.
=90	=90	=90	=90	=90	=90	=90	=90	=90	=90
1G#]	.	1B]	.	1e]	.	1r	.	1r	.
=91	=91	=91	=91	=91	=91	=91	=91	=91	=91
[1F#	ah	2.d#	lu	[1B	ah	1r	.	1r	.
.	.	4F#	lu	.	.	.	.	.	.
=92	=92	=92	=92	=92	=92	=92	=92	=92	=92
1F#]	.	1B	lu	1B]	.	1r	.	1r	.
=93	=93	=93	=93	=93	=93	=93	=93	=93	=93
[1G#	ah	[1B	ah	[1e	ah	1r	.	1r	.
=94	=94	=94	=94	=94	=94	=94	=94	=94	=94
1G#]	.	1B]	.	1e]	.	1r	.	1r	.
=95	=95	=95	=95	=95	=95	=95	=95	=95	=95
[1F#	ah	2.d#	lu	[1B	ah	1r	.	1r	.
.	.	4F#	lu	.	.	.	.	.	.
=96	=96	=96	=96	=96	=96	=96	=96	=96	=96
1F#]	.	4.B	lu	1B]	.	2r	.	2r	.
.	.	[8F#	lu	.	.	.	.	.	.
.	.	4F#]	.	.	.	4r	.	4r	.
.	.	4E	lu	.	.	4B	さ	4B	さ
=97||	=97||	=97||	=97||	=97||	=97||	=97||	=97||	=97||	=97||
[1E	fu	4B	lu	4e	lu	8c#L	む	8c#L	む
.	.	.	.	.	.	8BJ	い	8BJ	い
.	.	4F#	lu	4G#	lu	4B	ふ	4B	ふ
.	.	4B	lu	4B	lu	4c#	ゆ	4c#	ゆ
.	.	[4F#	lu	4G#	lu	4B	の	4B	の
=98	=98	=98	=98	=98	=98	=98	=98	=98	=98
1E]	.	4F#]	.	4e	lu	4c#	ひ	4c#	ひ
.	.	4F#	lu	4G#	lu	4B	え	4B	え
.	.	4B	lu	4B	lu	4c#	た	4c#	た
.	.	4F#	lu	4G#	lu	4e	かん	4e	かん
=99	=99	=99	=99	=99	=99	=99	=99	=99	=99
2F#	uh	4B	lu	4f#	lu	8d#L	コ	8d#L	コ
.	.	.	.	.	.	8BJ	ー	8BJ	ー
.	.	4F#	lu	4B	lu	2.B	ヒー	2.B	ヒー
4r	.	4B	lu	4c#	lu	.	.	.	.
4e	かん	4e	かん	4e	かん	.	.	.	.
=100	=100	=100	=100	=100	=100	=100	=100	=100	=100
8d#L	コ	8d#L	コ	8d#L	コ	2r	.	2r	.
8BJ	ー	8BJ	ー	8BJ	ー	.	.	.	.
[2.B	ヒー	2.B	ヒー	2.B	ヒー	.	.	.	.
.	.	.	.	.	.	4r	.	4r	.
.	.	.	.	.	.	4B	に	4B	に
=101	=101	=101	=101	=101	=101	=101	=101	=101	=101
1E]	fu	4B	lu	4g#	lu	4c#	じ	4c#	じ
.	.	4F#	lu	4B	lu	4d#	い	4d#	い
.	.	4B	lu	4c#	lu	4f#	ろ	4f#	ろ
.	.	[4F#	lu	4B	lu	4d#	の	4d#	の
=102	=102	=102	=102	=102	=102	=102	=102	=102	=102
1E	uh	4F#]	.	4g#	lu	4c#	な	4c#	な
.	.	4F#	lu	4B	lu	4d#	が	4d#	が
.	.	4B	lu	4c#	lu	4f#	い	4f#	い
.	.	4F#	lu	4B	lu	[4c#	マ	[4c#	マ
=103	=103	=103	=103	=103	=103	=103	=103	=103	=103
1F#	ha	4B	lu	4f#	lu	4c#]	フ	4c#]	フ
.	.	4F#	lu	4B	lu	2.B	ラー	2.B	ラー
.	.	4B	lu	4c#	lu	.	.	.	.
.	.	[4c#	マ	[4d#	マ	.	.	.	.
=104	=104	=104	=104	=104	=104	=104	=104	=104	=104
1F#	ah	4c#]	フ	4d#]	フ	2r	.	2r	.
.	.	2.B	ラー	2.c#	ラー	.	.	.	.
.	.	.	.	.	.	4r	.	4r	.
.	.	.	.	.	.	4B	こ	4B	こ
=105	=105	=105	=105	=105	=105	=105	=105	=105	=105
1E	fu	4B	lu	4e	lu	4c#	ば	4c#	ば
.	.	4F#	lu	4G#	lu	8c#L	し	8c#L	し
.	.	.	.	.	.	8d#J	.	8d#J	.
.	.	4B	lu	4B	lu	8c#L	り	8c#L	り
.	.	.	.	.	.	8BJ	.	8BJ	.
.	.	[4F#	lu	4G#	lu	4B	で	4B	で
=106	=106	=106	=106	=106	=106	=106	=106	=106	=106
1E	uh	4F#]	.	4e	lu	4c#	ろ	4c#	ろ
.	.	4F#	lu	4G#	lu	4d#	じ	4d#	じ
.	.	4B	lu	4B	lu	4c#	う	4c#	う
.	.	4F#	lu	4G#	lu	4B	ら	4B	ら
=107	=107	=107	=107	=107	=107	=107	=107	=107	=107
1F#	fu	4B	lu	4f#	lu	8F#L	ぬ	8F#L	ぬ
.	.	.	.	.	.	8G#J	け	8G#J	け
.	.	4F#	lu	4B	lu	[2.B	て	[2.B	て
.	.	4B	lu	4c#	lu	.	.	.	.
.	.	[4F#	lu	4B	lu	.	.	.	.
=108	=108	=108	=108	=108	=108	=108	=108	=108	=108
[2F#	uh	4F#]	.	4f#	lu	2B]	.	2B]	.
.	.	4F#	lu	4B	lu	.	.	.	.
4F#]	.	4B	lu	4c#	lu	4r	.	4r	.
4BB	お	4G#	お	4B	お	4B	お	4B	お
=109	=109	=109	=109	=109	=109	=109	=109	=109	=109
2C#	も	2A#	も	2e	も	2c#	も	2c#	も
2D#	い	2B	い	2f#	い	2d#	い	2d#	い
=110	=110	=110	=110	=110	=110	=110	=110	=110	=110
[4.C#	だ	[4.A#	だ	[4.e	だ	[4.c#	だ	[4.c#	だ
8C#]	し	8A#]	し	8e]	し	8c#]	し	8c#]	し
4D#	て	4B	て	4f#	て	4d#	て	4d#	て
[4C#	み	[4A#	み	[4e	み	[4c#	み	[4c#	み
=111	=111	=111	=111	=111	=111	=111	=111	=111	=111
4C#]	.	4A#]	.	4e]	.	4c#]	.	4c#]	.
[4F#	る	[4c#	る	[4a#	る	[4f#	る	[4f#	る
2F#]	.	2c#]	.	2a#]	.	2f#]	.	2f#]	.
=112	=112	=112	=112	=112	=112	=112	=112	=112	=112
4r	.	1r	.	4r	.	4r	.	4r	.
4AA#	た	.	.	4D#	た	4F#	た	4F#	た
4AA#	と	.	.	4D#	と	4F#	と	4F#	と
4c#	え	.	.	4e	え	4g#	え	4g#	え
=113||	=113||	=113||	=113||	=113||	=113||	=113||	=113||	=113||	=113||
2B	ば	1c#	lu	2d#	ば	2f#	ば	2f#	ば
4r	.	.	.	4r	.	4r	.	4r	.
4F#	ゆ	.	.	4d#	ゆ	4B	ゆ	4B	ゆ
=114	=114	=114	=114	=114	=114	=114	=114	=114	=114
4F#	る	1d#	lu	4d#	る	4B	る	4B	る
4F#	い	.	.	4d#	い	4B	い	4B	い
4r	.	.	.	4r	.	4r	.	4r	.
[4F#	し	.	.	[4d#	し	[4B	し	[4B	し
=115	=115	=115	=115	=115	=115	=115	=115	=115	=115
4F#]	.	1B	lu	4d#]	.	4B]	.	4B]	.
4E	あ	.	.	4c#	あ	4A#	あ	4A#	あ
4D#	わ	.	.	4B	わ	4G#	わ	4G#	わ
4BB	せ	.	.	4A#	せ	4F#	せ	4F#	せ
=116	=116	=116	=116	=116	=116	=116	=116	=116	=116
4BB	が	4c#	lu	4A#	が	4F#	が	4F#	が
4BB	だ	4d#	lu	4A#	だ	4F#	だ	4F#	だ
2c#	らっ	4f#	lu	2e	らっ	2g#	らっ	2g#	らっ
.	.	4d#	lu	.	.	.	.	.	.
=117	=117	=117	=117	=117	=117	=117	=117	=117	=117
2B	と	1c#	lu	2d#	と	2f#	と	2f#	と
4r	.	.	.	4r	.	4r	.	4r	.
4F#	つ	.	.	4d#	つ	4B	つ	4B	つ
=118	=118	=118	=118	=118	=118	=118	=118	=118	=118
4F#	づ	1d#	lu	4d#	づ	4B	づ	4B	づ
4F#	い	.	.	4d#	い	4B	い	4B	い
4r	.	.	.	4r	.	4r	.	4r	.
[4F#	た	.	.	[4d#	た	[4B	た	[4B	た
=119	=119	=119	=119	=119	=119	=119	=119	=119	=119
4F#]	.	1B	lu	4d#]	.	4B]	.	4B]	.
4E	と	.	.	4c#	と	4A#	と	4A#	と
4F#	す	.	.	4d#	す	4B	す	4B	す
4G#	る	.	.	4e	る	4c#	る	4c#	る
=120	=120	=120	=120	=120	=120	=120	=120	=120	=120
4F#	.	4B	lu	4d#	.	4B	.	4B	.
4r	.	4A#	lu	4r	.	4r	.	4r	.
2c#	きっ	4F#	lu	2e	きっ	2g#	きっ	2g#	きっ
.	.	4A#	lu	.	.	.	.	.	.
=121	=121	=121	=121	=121	=121	=121	=121	=121	=121
2B	と	1c#	lu	2d#	と	2f#	と	2f#	と
4r	.	.	.	4r	.	4r	.	4r	.
4F#	わ	.	.	4d#	わ	4B	わ	4B	わ
=122	=122	=122	=122	=122	=122	=122	=122	=122	=122
4F#	る	1d#	lu	4d#	る	4B	る	4B	る
4F#	い	.	.	4d#	い	4B	い	4B	い
4r	.	.	.	4r	.	4r	.	4r	.
[4F#	た	.	.	[4d#	た	[4B	た	[4B	た
=123	=123	=123	=123	=123	=123	=123	=123	=123	=123
4F#]	.	1B	lu	4d#]	.	4B]	.	4B]	.
4E	ね	.	.	4c#	ね	4A#	ね	4A#	ね
4D#	が	.	.	4B	が	4G#	が	4G#	が
[4BB	め	.	.	[4A#	め	[4F#	め	[4F#	め
=124	=124	=124	=124	=124	=124	=124	=124	=124	=124
4BB]	.	4c#	lu	4A#]	.	4F#]	.	4F#]	.
4D#	を	4d#	lu	4B	を	4G#	を	4G#	を
[4.c#	だ	4f#	lu	[4.e	だ	[4.g#	だ	[4.g#	だ
.	.	4d#	lu	.	.	.	.	.	.
8c#]	し	.	.	8e]	し	8g#]	し	8g#]	し
=125	=125	=125	=125	=125	=125	=125	=125	=125	=125
2B	て	1c#	lu	2d#	て	2f#	て	2f#	て
4r	.	.	.	4r	.	4r	.	4r	.
8G#L	も	.	.	8eL	も	8c#L	も	8c#L	も
[8F#J	う	.	.	[8d#J	う	[8BJ	う	[8BJ	う
=126	=126	=126	=126	=126	=126	=126	=126	=126	=126
4F#_	.	1d#	lu	2d#]	.	2B]	.	2B]	.
4F#]	.	.	.	.	.	.	.	.	.
4r	.	.	.	4r	.	4r	.	4r	.
[4G#	さ	.	.	[4d#	さ	[4B	さ	[4B	さ
=127	=127	=127	=127	=127	=127	=127	=127	=127	=127
4G#]	.	1B	lu	4d#]	.	4B]	.	4B]	.
4G#	よ	.	.	4d#	よ	4B	よ	4B	よ
4G#	な	.	.	4d#	な	4B	な	4B	な
4c#	ら	.	.	4g#	ら	4e	ら	4e	ら
=128	=128	=128	=128	=128	=128	=128	=128	=128	=128
4B	ー	4B	lu	4f#	ー	4d#	ー	4d#	ー
4A#	な	4A#	lu	4e	な	4c#	な	4c#	な
4C#	ん	4F#	lu	4A#	ん	4F#	ん	4F#	ん
4A#	だ	4A#	lu	4e	だ	4c#	だ	4c#	だ
=129||	=129||	=129||	=129||	=129||	=129||	=129||	=129||	=129||	=129||
1G#	ー	1c#	ah	1e	ー	[1B	ー	[1B	ー
=130	=130	=130	=130	=130	=130	=130	=130	=130	=130
1E	ー	1G#	ー	1B	ー	1B]	.	1B]	.
=131	=131	=131	=131	=131	=131	=131	=131	=131	=131
1F#	ー	1A#	ー	1c#	ー	1r	.	1r	.
=132	=132	=132	=132	=132	=132	=132	=132	=132	=132
1G#	ー	1B	ー	1d#	ー	4r	.	4r	.
.	.	.	.	.	.	4c#	な	4c#	な
.	.	.	.	.	.	4F#	ん	4F#	ん
.	.	.	.	.	.	8BL	だ	8BL	だ
.	.	.	.	.	.	8c#J	.	8c#J	.
=133	=133	=133	=133	=133	=133	=133	=133	=133	=133
1G#	ah	1c#	ah	1e	ah	[1B	ー	[1B	ー
=134	=134	=134	=134	=134	=134	=134	=134	=134	=134
1E	ー	1G#	ー	1B	ー	1B]	.	1B]	.
=135	=135	=135	=135	=135	=135	=135	=135	=135	=135
1F#	ー	1A#	ー	1c#	ー	1r	.	1r	.
=136	=136	=136	=136	=136	=136	=136	=136	=136	=136
[2G#	ー	4r	.	[2d#	ー	4r	.	4r	.
.	.	4e	な	.	.	4c#	な	4c#	な
4G#]	.	4A#	ん	4d#]	.	4F#	ん	4F#	ん
4r	.	8d#L	だ	4r	.	8BL	だ	8BL	だ
.	.	8eJ	.	.	.	8c#J	.	8c#J	.
=137	=137	=137	=137	=137	=137	=137	=137	=137	=137
2G#	tun	[1d#	ー	2e	tun	[1B	ー	[1B	ー
2G#	tun	.	.	2e	tun	.	.	.	.
=138	=138	=138	=138	=138	=138	=138	=138	=138	=138
2E	tun	1d#]	ー	2B	tun	1B]	.	1B]	.
2E	tun	.	.	2B	tun	.	.	.	.
=139	=139	=139	=139	=139	=139	=139	=139	=139	=139
2F#	tun	1r	.	2c#	tun	1r	.	1r	.
2F#	tun	.	.	2c#	tun	.	.	.	.
=140	=140	=140	=140	=140	=140	=140	=140	=140	=140
4r	.	4r	.	4r	.	4r	.	4r	.
4C#	な	4e	な	4g#	な	4c#	な	4c#	な
4FF#	ん	4A#	ん	4c#	ん	4F#	ん	4F#	ん
8BBL	だ	8d#L	だ	8f#L	だ	8BL	だ	8BL	だ
8C#J	.	8eJ	.	8g#J	.	8c#J	.	8c#J	.
=141	=141	=141	=141	=141	=141	=141	=141	=141	=141
[1BB	ー	[1d#	ー	[1f#	ー	[1B	ー	[1B	ー
=142	=142	=142	=142	=142	=142	=142	=142	=142	=142
1BB]	.	1d#]	.	1f#]	.	1B]	.	1B]	.
=143	=143	=143	=143	=143	=143	=143	=143	=143	=143
4r	.	4r	.	4r	.	1r	.	1r	.
4F#	tu	4A#	tu	4c#	tu	.	.	.	.
4r	.	4r	.	4r	.	.	.	.	.
4F#	tu	4A#	tu	4c#	tu	.	.	.	.
=144	=144	=144	=144	=144	=144	=144	=144	=144	=144
2G#	ha	2B	ha	2d#	ha	1r	.	1r	.
2G#	ah	2B	ah	2d#	ah	.	.	.	.
=145||	=145||	=145||	=145||	=145||	=145||	=145||	=145||	=145||	=145||
1r	.	1r	.	4r	.	4r	.	4r	.
.	.	.	.	4G#	さ	4B	さ	4B	さ
.	.	.	.	4G#	よ	4B	よ	4B	よ
.	.	.	.	4e	な	4g#	な	4g#	な
=146	=146	=146	=146	=146	=146	=146	=146	=146	=146
4r	.	4r	.	2d#	ら	2f#	ら	2f#	ら
4BB	さ	4E	さ	.	.	.	.	.	.
4BB	よ	4E	よ	4r	.	4r	.	4r	.
4G#	な	4c#	な	4G#	そ	4B	そ	4B	そ
=147	=147	=147	=147	=147	=147	=147	=147	=147	=147
2F#	ら	2B	ら	4F#	れ	4A#	れ	4A#	れ
.	.	.	.	4G#	も	4B	も	4B	も
4r	.	4r	.	2e	いい	2g#	いい	2g#	いい
4BB	そ	4E	そ	.	.	.	.	.	.
=148	=148	=148	=148	=148	=148	=148	=148	=148	=148
4AA#	れ	4D#	れ	2.d#	さ	2.f#	さ	2.f#	さ
4BB	も	4E	も	.	.	.	.	.	.
2G#	いい	2c#	いい	.	.	.	.	.	.
.	.	.	.	4r	.	4r	.	4r	.
=149	=149	=149	=149	=149	=149	=149	=149	=149	=149
2.F#	さ	2.B	さ	4r	.	4r	.	4r	.
.	.	.	.	4G#	ど	4B	ど	4B	ど
.	.	.	.	4G#	こ	4B	こ	4B	こ
4r	.	4r	.	4e	か	4g#	か	4g#	か
=150	=150	=150	=150	=150	=150	=150	=150	=150	=150
1G#	woo	1B	woo	4d#	で	4f#	で	4f#	で
.	.	.	.	4G#	.	4B	.	4B	.
.	.	.	.	4G#	げ	4B	げ	4B	げ
.	.	.	.	4G#	ん	4B	ん	4B	ん
=151	=151	=151	=151	=151	=151	=151	=151	=151	=151
1A#	ー	1c#	ー	4F#	き	4A#	き	4A#	き
.	.	.	.	4G#	で	4B	で	4B	で
.	.	.	.	4A#	や	4c#	や	4c#	や
.	.	.	.	8A#L	れ	8c#L	れ	8c#L	れ
.	.	.	.	[8BJ	.	[8d#J	.	[8d#J	.
=152	=152	=152	=152	=152	=152	=152	=152	=152	=152
2B	ha	2d#	ha	4B]	.	4d#]	.	4d#]	.
.	.	.	.	4d#	よ	4f#	よ	4f#	よ
2A#	ー	2c#	ー	2d#	.	2f#	.	2f#	.
=153	=153	=153	=153	=153	=153	=153	=153	=153	=153
1G#	ー	1B	ー	4r	.	4r	.	4r	.
.	.	.	.	4G#	さ	4B	さ	4B	さ
.	.	.	.	4G#	よ	4B	よ	4B	よ
.	.	.	.	4e	な	4g#	な	4g#	な
=154	=154	=154	=154	=154	=154	=154	=154	=154	=154
4r	.	4r	.	4d#	ら	4f#	ら	4f#	ら
4BB	さ	4E	さ	4G#	ぼ	4B	ぼ	4B	ぼ
4BB	よ	4E	よ	4G#	く	4B	く	4B	く
4G#	な	4c#	な	4G#	も	4B	も	4B	も
=155	=155	=155	=155	=155	=155	=155	=155	=155	=155
4F#	ら	4B	ら	4F#	ど	4A#	ど	4A#	ど
4F#	ぼ	4B	ぼ	4G#	う	4B	う	4B	う
4F#	く	4B	く	4e	に	4g#	に	4g#	に
4F#	も	4B	も	4d#	か	4f#	か	4f#	か
=156	=156	=156	=156	=156	=156	=156	=156	=156	=156
4r	.	4r	.	4r	.	4r	.	4r	.
4C#	や	4F#	や	4A#	や	4c#	や	4c#	や
4E	る	4A#	る	4c#	る	4e	る	4e	る
4D#	さ	4G#	さ	4B	さ	4d#	さ	4d#	さ
=157	=157	=157	=157	=157	=157	=157	=157	=157	=157
4r	.	4r	.	4r	.	4r	.	4r	.
4BB	さ	4E	さ	4G#	さ	4B	さ	4B	さ
4BB	よ	4E	よ	4G#	よ	4B	よ	4B	よ
4G#	な	4c#	な	4e	な	4g#	な	4g#	な
=158	=158	=158	=158	=158	=158	=158	=158	=158	=158
2F#	ら	2B	ら	2d#	ら	2f#	ら	2f#	ら
4r	.	4r	.	4r	.	4r	.	4r	.
4D#	そ	4E	そ	4G#	そ	4B	そ	4B	そ
=159	=159	=159	=159	=159	=159	=159	=159	=159	=159
4C#	う	4D#	う	4F#	う	4A#	う	4A#	う
4D#	す	4E	す	4G#	す	4B	す	4B	す
4E	る	4F#	る	4A#	る	4c#	る	4c#	る
8EL	よ	8F#L	よ	8A#L	よ	8c#L	よ	8c#L	よ
[8F#J	.	[8G#J	.	[8BJ	.	[8d#J	.	[8d#J	.
=160	=160	=160	=160	=160	=160	=160	=160	=160	=160
2F#]	.	2G#]	.	2B]	.	2d#]	.	2d#]	.
[2G#	wow	2B	wow	[2d#	wow	[2f#	wow	[2f#	wow
=161||	=161||	=161||	=161||	=161||	=161||	=161||	=161||	=161||	=161||
1G#]	ー	1c#	ー	1d#_	ー	1f#_	ー	1f#_	ー
=162	=162	=162	=162	=162	=162	=162	=162	=162	=162
1G#	ー	1B	ー	1d#]	ー	1f#]	ー	1f#]	ー
=163	=163	=163	=163	=163	=163	=163	=163	=163	=163
1A#	ー	1c#	ー	1r	.	2r	.	2r	.
.	.	.	.	.	.	4r	.	4r	.
.	.	.	.	.	.	8a#L	wow	8a#L	wow
.	.	.	.	.	.	[8bJ	.	[8bJ	.
=164	=164	=164	=164	=164	=164	=164	=164	=164	=164
1B	ー	1d#	ー	1r	.	4b]	.	4b]	.
.	.	.	.	.	.	2a#	.	2a#	.
.	.	.	.	.	.	[4f#	.	[4f#	.
=165	=165	=165	=165	=165	=165	=165	=165	=165	=165
1G#	fu	1c#	fu	1e	fu	1f#_	.	1f#_	.
=166	=166	=166	=166	=166	=166	=166	=166	=166	=166
1G#	uh	1B	uh	1e	uh	2.f#]	.	2.f#]	.
.	.	.	.	.	.	8d#L	wow	8d#L	wow
.	.	.	.	.	.	[8eJ	.	[8eJ	.
=167	=167	=167	=167	=167	=167	=167	=167	=167	=167
1A#	uh	1c#	uh	1f#	uh	4e]	.	4e]	.
.	.	.	.	.	.	2d#	.	2d#	.
.	.	.	.	.	.	[4c#	.	[4c#	.
=168	=168	=168	=168	=168	=168	=168	=168	=168	=168
2B	ha	2d#	ha	2g#	ha	4c#]	.	4c#]	.
.	.	.	.	.	.	2B	.	2B	.
2A#	ah	2c#	ah	2f#	ah	.	.	.	.
.	.	.	.	.	.	8A#L	.	8A#L	.
.	.	.	.	.	.	[8BJ	.	[8BJ	.
=169	=169	=169	=169	=169	=169	=169	=169	=169	=169
2G#	tun	2c#	tun	2e	tun	1B]	.	1B]	.
2G#	tun	2c#	tun	2e	tun	.	.	.	.
=170	=170	=170	=170	=170	=170	=170	=170	=170	=170
2G#	tun	2B	tun	2e	tun	1r	.	1r	.
2G#	tun	2B	tun	2e	tun	.	.	.	.
=171	=171	=171	=171	=171	=171	=171	=171	=171	=171
2A#	tun	2c#	tun	2f#	tun	1r	.	1r	.
2A#	tun	2c#	tun	2f#	tun	.	.	.	.
=172	=172	=172	=172	=172	=172	=172	=172	=172	=172
2B	tun	2d#	tun	2g#	tun	1r	.	1r	.
2B	tun	2d#	tun	2g#	tun	.	.	.	.
=173	=173	=173	=173	=173	=173	=173	=173	=173	=173
1G#	fu	1c#	fu	1e	fu	1r	.	1r	.
=174	=174	=174	=174	=174	=174	=174	=174	=174	=174
1G#	uh	1B	uh	1e	uh	1r	.	1r	.
=175	=175	=175	=175	=175	=175	=175	=175	=175	=175
1A#	uh	1c#	uh	1f#	uh	1r	.	1r	.
=176	=176	=176	=176	=176	=176	=176	=176	=176	=176
1G#	uh	1B	uh	1d#	uh	1r	.	1r	.
=177	=177	=177	=177	=177	=177	=177	=177	=177	=177
1G#	fu	1c#	fu	1r	.	1r	.	1r	.
=178	=178	=178	=178	=178	=178	=178	=178	=178	=178
1G#	uh	1B	uh	1r	.	1r	.	1r	.
=179	=179	=179	=179	=179	=179	=179	=179	=179	=179
1A#	uh	1c#	uh	1r	.	1r	.	1r	.
=180	=180	=180	=180	=180	=180	=180	=180	=180	=180
1G#	uh	1B	uh	1r	.	1r	.	1r	.
=181	=181	=181	=181	=181	=181	=181	=181	=181	=181
2r	.	2r	.	2r	.	2r	.	2r	.
[2E	お好きなスキャットでどうぞ！	[2A#	.	[2e	.	[2B	.	[2B	.
=182	=182	=182	=182	=182	=182	=182	=182	=182	=182
1E_	.	1A#_	.	1e_	.	1B_	.	1B_	.
=183	=183	=183	=183	=183	=183	=183	=183	=183	=183
1E]	.	1A#]	.	1e]	.	1B]	.	1B]	.
==	==	==	==	==	==	==	==	==	==
*-	*-	*-	*-	*-	*-	*-	*-	*-	*-
